src/assets/pokeball.svg

<?xml version="1.0" ?><svg width="512px" height="512px" viewBox="0 0 512 512" data-name="Layer 1" id="Layer_1" xmlns="http://www.w3.org/2000/svg"><title/><path d="M450.46,256.09C449.35,175.17,399.81,102.71,324,73.79,247.59,44.67,157.49,69,105.82,132.13,54.4,195,46.61,285.58,88.49,355.68c41.8,69.95,123.74,106,203.55,91.63,91-16.37,156.14-98.12,158.35-189.14A20.16,20.16,0,0,0,450.46,256.09ZM119.05,174.38C152.76,118,220.23,87,285,99.43c69.4,13.29,120.43,70.47,128.83,139H318.41c-8.26-27.36-32-48-62.62-48-29.65,0-55.15,20.65-63.11,48H97.74A158,158,0,0,1,119.05,174.38ZM286.13,256.1c-2,38.75-60.67,39.4-60.67,0S284.17,217.33,286.13,256.1Zm24,149.79C246.85,428.58,175,408.74,132.3,356.82a157.53,157.53,0,0,1-34.57-83H192.6c7.91,27.39,33.7,48,63.19,48,30.67,0,54.36-20.68,62.62-48h95.45C406.61,333,367.54,385.32,310.14,405.89Z"/></svg>

<svg width="512" height="512" viewBox="0 0 512 512" fill="none" xmlns="http://www.w3.org/2000/svg">
<path d="M450.46 256.09C449.35 175.17 399.81 102.71 324 73.79C247.59 44.67 157.49 69 105.82 132.13C54.4 195 46.61 285.58 88.49 355.68C130.29 425.63 212.23 461.68 292.04 447.31C383.04 430.94 448.18 349.19 450.39 258.17C450.449 257.478 450.472 256.784 450.46 256.09ZM119.05 174.38C152.76 118 220.23 87 285 99.43C354.4 112.72 405.43 169.9 413.83 238.43H318.41C310.15 211.07 286.41 190.43 255.79 190.43C226.14 190.43 200.64 211.08 192.68 238.43H97.74C100.146 215.794 107.416 193.946 119.05 174.38V174.38ZM286.13 256.1C284.13 294.85 225.46 295.5 225.46 256.1C225.46 216.7 284.17 217.33 286.13 256.1ZM310.13 405.89C246.85 428.58 175 408.74 132.3 356.82C112.958 333.099 100.946 304.258 97.73 273.82H192.6C200.51 301.21 226.3 321.82 255.79 321.82C286.46 321.82 310.15 301.14 318.41 273.82H413.86C406.61 333 367.54 385.32 310.14 405.89H310.13Z" fill="#242629"/>
</svg>
